X:1050
T:Put on your Clothes
R:double jig
N:"collected by J.O'Neill"
B:O'Neill's 1050
Z:Transcribed by henrik.norbeck@mailbox.swipnet.se
M:6/8
L:1/8
K:Am
e/d/|cGE cGE|FEDE CEG|cGE cGE|Add ded|
cGE cGE|FEDE CEG|cee e2d|cAA A2:|
z|gag ged|ecc cde|aba age|edd d2e|
[1 gag ged|ecc cde|fed fed|ecA A2:|
[2 gfe agf|gfe dcB|cee e2d|cAA A2||
